X:1
T:FAREWELL, MY SON
M:3/4
Q:1/4=90
K:F
A4BG|A3ABG|A2A3G|e_dAGF3/2E/2|D3Ade|f3/2e/2dAce|
B3EFG|F3GB/2A/2E/2F/2|D3FED|A2GAEF|D7/4||
